X:57
T:Julia Delaney
R:Reel
M:C|
L:1/8
K:Dm
|: "Dm"dcAG F2DF | "C"E2CE "Dm"FED2 | dcAG F2DF | "Am"Add^c "Bb"defe |
  "Dm"dcAG F2DF | "C"E2CE "Dm"FED2 | dcAG F2DF | "Am"Add^c "Dm(Bb)"d4 :|
|: "Dm"f2fe fagf | "C"e2g2 a2g2 | "Bb"f2fe fagf | "Am"ed^ce "G"d2de |
  "Dm "f2fe fagf | "C"e2g2 a2g2 | "Bb"fedf "C"edcA | "Am"Add^c "Dm(Bb)"d4 :|
